static/svgs/project/remix-gray.svg

<?xml version="1.0" encoding="UTF-8"?>
<svg width="20px" height="20px" viewBox="0 0 20 20" version="1.1" xmlns="http://www.w3.org/2000/svg" xmlns:xlink="http://www.w3.org/1999/xlink">
    <!-- Generator: Sketch 50.2 (55047) - http://www.bohemiancoding.com/sketch -->
    <title>remix-gray</title>
    <desc>Created with Sketch.</desc>
    <defs></defs>
    <g id="remix-gray" stroke="none" stroke-width="1" fill="none" fill-rule="evenodd">
        <path d="M3.79735343,14.2387738 C2.44202813,12.0161502 2.33133423,9.04998717 3.52556841,6.69855452 C4.76300021,4.1712308 6.84548544,3.05103565 7.68243931,2.68681676 C8.18551159,2.45318367 8.71558237,2.27107423 9.28615093,2.13693508 L9.84592008,2.01612101 C10.2571974,1.93172883 10.6666748,2.18668205 10.7557699,2.59354119 C10.845765,3.00128868 10.5838794,3.40281779 10.1708022,3.49165166 L9.62633218,3.60891238 C9.17365713,3.71551303 8.73988103,3.86475393 8.31690435,4.06196513 C7.76703465,4.30003992 5.94823489,5.22124719 4.89889272,7.36569692 C4.10243662,8.93183812 3.86484971,11.4218516 5.11848062,13.4765791 C6.25421803,15.4557978 8.57968986,16.6692686 10.7854683,16.4649507 C12.8715533,16.3148214 14.7857478,14.926348 15.4571108,13.0874868 C16.1383733,11.3578912 15.6856982,9.5847671 14.9378394,8.58627435 C14.0369891,7.35592519 12.9156509,6.97749289 12.4755751,6.87178058 C12.4098788,6.85223712 10.8691637,6.38941264 9.50843868,7.07076845 C8.92257097,7.3514835 8.16481273,7.98309234 7.7589351,8.93183812 C7.32065925,9.91167575 7.434053,11.1713401 8.02802027,12.0081552 C8.62558733,12.9053773 9.75232523,13.4135071 10.7215718,13.2411694 C11.6863186,13.0892634 12.3387827,12.3714857 12.4935742,11.7407652 C12.6753641,11.0629628 12.3963795,10.4899843 12.1785915,10.2838897 C11.8087119,9.91878246 11.4892295,9.91256409 11.4757303,9.91167575 C11.3245386,9.90723406 11.2498427,9.91878246 11.2048452,9.92588917 C11.0320547,9.98896122 10.7872682,10.1275421 10.7152722,10.2732296 C10.7026729,10.2972148 10.6702746,10.3629518 10.7323712,10.5272945 C10.880863,10.9172752 10.6801741,11.3534495 10.2850959,11.5000254 C9.89181755,11.6474897 9.44904195,11.4493901 9.29965018,11.0585211 C9.05396372,10.4118105 9.18985623,9.90545738 9.34734755,9.59453882 C9.75862489,8.78526223 10.7134723,8.49211044 10.8214663,8.46101859 C10.8709636,8.44591683 10.9231607,8.43703344 10.9744579,8.43259175 C11.0797521,8.41660165 11.2651419,8.39172816 11.516228,8.40149989 C12.0912963,8.4086066 12.7464602,8.7088651 13.2486325,9.20544645 C13.8416999,9.76509986 14.3060743,10.8897367 13.9766924,12.1120908 C13.6554101,13.4206138 12.4206782,14.5026104 10.9798576,14.7291368 C9.43014299,15.0054101 7.68513916,14.2414388 6.76358995,12.8565187 C5.87533891,11.6084027 5.70524828,9.7819783 6.35501247,8.33309781 C7.06777319,6.66479765 8.42939815,5.90970972 8.82897612,5.71782855 C10.7503702,4.75842271 12.804057,5.39180823 12.8904523,5.41845839 C13.4430218,5.54904419 14.9792372,6.06339232 16.1734713,7.69527059 C17.0914208,8.92295473 17.8356797,11.215757 16.8898319,13.6160483 C16.0258795,15.9816944 13.566315,17.7788037 10.9141612,17.9697965 C10.7062727,17.9893399 10.4956843,18 10.2859958,18 C7.71213768,18 5.10498136,16.5164743 3.79735343,14.2387738 Z" id="Fill-1" fill="#575E75"></path>
    </g>
</svg>

<svg width="20" height="20" xmlns="http://www.w3.org/2000/svg"><path d="M3.797 14.239c-1.355-2.223-1.466-5.189-.271-7.54a8.498 8.498 0 0 1 4.156-4.012 8.279 8.279 0 0 1 1.604-.55l.56-.12a.77.77 0 0 1 .91.577.755.755 0 0 1-.585.898l-.545.117a6.73 6.73 0 0 0-1.31.453A7.06 7.06 0 0 0 4.9 7.366c-.797 1.566-1.034 4.056.22 6.11 1.135 1.98 3.46 3.193 5.666 2.989 2.087-.15 4-1.539 4.672-3.378.681-1.73.229-3.502-.52-4.5-.9-1.231-2.021-1.61-2.461-1.715-.066-.02-1.607-.483-2.968.199-.585.28-1.343.912-1.75 1.86-.437.98-.324 2.24.27 3.077.598.897 1.724 1.406 2.694 1.233.964-.152 1.617-.87 1.772-1.5.181-.678-.098-1.251-.315-1.457-.37-.365-.69-.371-.703-.372a1.316 1.316 0 0 0-.271.014c-.173.063-.418.202-.49.347-.012.024-.045.09.017.254a.753.753 0 0 1-.447.973.768.768 0 0 1-.985-.441c-.246-.647-.11-1.154.047-1.464.412-.81 1.366-1.103 1.474-1.134a.749.749 0 0 1 .153-.028c.106-.016.291-.041.542-.032.575.008 1.23.308 1.733.804.593.56 1.057 1.685.728 2.907-.322 1.309-1.556 2.39-2.997 2.617-1.55.276-3.295-.488-4.216-1.872-.889-1.249-1.059-3.075-.409-4.524a5.263 5.263 0 0 1 2.474-2.615c1.921-.96 3.975-.326 4.061-.3.553.131 2.09.645 3.283 2.277.918 1.228 1.663 3.52.717 5.921-.864 2.366-3.324 4.163-5.976 4.354-.208.02-.418.03-.628.03-2.574 0-5.181-1.484-6.489-3.761z" fill="#575E75" fill-rule="evenodd"/></svg>
